dist/img/sprites/logos_telegram.svg

<svg width="25" height="25" viewBox="0 0 25 25" fill="none" xmlns="http://www.w3.org/2000/svg">
<g clip-path="url(#clip0_1194_60778)">
<path d="M12.3105 0.5C9.12867 0.5 6.0743 1.76506 3.82617 4.01469C1.57573 6.26521 0.31117 9.31734 0.310547 12.5C0.310547 15.6813 1.57617 18.7357 3.82617 20.9853C6.0743 23.2349 9.12867 24.5 12.3105 24.5C15.4924 24.5 18.5468 23.2349 20.7949 20.9853C23.0449 18.7357 24.3105 15.6813 24.3105 12.5C24.3105 9.31869 23.0449 6.26431 20.7949 4.01469C18.5468 1.76506 15.4924 0.5 12.3105 0.5Z" fill="url(#paint0_linear_1194_60778)"/>
<path d="M5.74141 12.374C9.24016 10.85 11.5727 9.84521 12.7389 9.35977C16.0727 7.97359 16.7645 7.73284 17.2164 7.72468C17.3158 7.72309 17.537 7.74765 17.6814 7.86437C17.8014 7.96281 17.8352 8.09593 17.852 8.1894C17.867 8.28277 17.8877 8.49559 17.8708 8.66171C17.6908 10.5592 16.9089 15.1638 16.5114 17.2891C16.3445 18.1884 16.0127 18.4899 15.692 18.5193C14.9945 18.5835 14.4658 18.0588 13.7908 17.6165C12.7352 16.9241 12.1389 16.4932 11.1133 15.8176C9.92829 15.0369 10.697 14.6077 11.372 13.9065C11.5483 13.7229 14.6195 10.9301 14.6777 10.6768C14.6852 10.6451 14.6927 10.527 14.6214 10.4647C14.552 10.4023 14.4489 10.4236 14.3739 10.4405C14.267 10.4645 12.5814 11.5798 9.31141 13.7861C8.83329 14.115 8.40016 14.2753 8.01016 14.2668C7.58266 14.2576 6.75766 14.0246 6.14454 13.8255C5.39454 13.5811 4.79641 13.452 4.84891 13.037C4.87516 12.821 5.17329 12.6 5.74141 12.374Z" fill="white"/>
</g>
<defs>
<linearGradient id="paint0_linear_1194_60778" x1="1200.31" y1="0.5" x2="1200.31" y2="2400.5" gradientUnits="userSpaceOnUse">
<stop stop-color="#2AABEE"/>
<stop offset="1" stop-color="#229ED9"/>
</linearGradient>
<clipPath id="clip0_1194_60778">
<rect width="24" height="24" fill="white" transform="translate(0.310547 0.5)"/>
</clipPath>
</defs>
</svg>

<svg width="25" height="25" viewBox="0 0 25 25" fill="none" xmlns="http://www.w3.org/2000/svg"><g clip-path="url(#clip0_1194_60778)"><path d="M12.31.5a11.998 11.998 0 00-8.484 20.485 11.999 11.999 0 1016.969-16.97A11.998 11.998 0 0012.31.5z" fill="url(#paint0_linear_1194_60778)"/><path d="M5.741 12.374A584.088 584.088 0 0112.74 9.36c3.334-1.386 4.026-1.627 4.477-1.635.1-.002.321.023.465.14.12.098.154.23.171.324.015.094.036.307.019.473-.18 1.897-.962 6.502-1.36 8.627-.166.9-.498 1.2-.819 1.23-.697.065-1.226-.46-1.901-.902-1.056-.693-1.652-1.124-2.678-1.8-1.185-.78-.416-1.21.259-1.91.176-.184 3.248-2.977 3.306-3.23.007-.032.015-.15-.057-.212-.069-.063-.172-.041-.247-.024-.107.023-1.793 1.139-5.063 3.345-.478.329-.91.49-1.3.48-.428-.008-1.253-.241-1.866-.44-.75-.245-1.349-.374-1.296-.789.026-.216.324-.437.892-.663z" fill="#fff"/></g><defs><linearGradient id="paint0_linear_1194_60778" x1="1200.31" y1=".5" x2="1200.31" y2="2400.5" gradientUnits="userSpaceOnUse"><stop stop-color="#2AABEE"/><stop offset="1" stop-color="#229ED9"/></linearGradient><clipPath id="clip0_1194_60778"><path fill="#fff" transform="translate(.31 .5)" d="M0 0h24v24H0z"/></clipPath></defs></svg>
